public/assets/images/icons/grey/visibility-invisible/exclaim-circle.svg

<svg width="16" height="16" xmlns="http://www.w3.org/2000/svg" viewBox="0 0 16 16" shape-rendering="geometricPrecision" fill="#6e6e6e"><defs><mask id="a"><rect fill="#fff" width="100%" height="100%"/><path d="M12.997.858a4.809 4.809 0 0 0-4.253 2.563 4.81 4.81 0 0 0 8.506 0A4.812 4.812 0 0 0 12.997.858z" fill="#000"/></mask></defs><path d="M12.997 1.611a3.394 3.394 0 0 0-3.003 1.81 3.397 3.397 0 0 0 6.006 0 3.398 3.398 0 0 0-3.003-1.81zm-.001 3.396a1.587 1.587 0 1 1 0-3.174 1.587 1.587 0 0 1 0 3.174z" fill="#cb1800"/><g mask="url(#a)"><path d="M7.999.973a6.997 6.997 0 1 0 .002 13.994A6.997 6.997 0 0 0 8 .973zm0 12.579a5.589 5.589 0 0 1-5.581-5.579 5.59 5.59 0 0 1 5.581-5.585 5.591 5.591 0 0 1 5.582 5.585 5.59 5.59 0 0 1-5.582 5.579zm.006-3.426c-.683 0-1.16.49-1.16 1.175 0 .671.464 1.172 1.147 1.172h.013c.698 0 1.148-.501 1.148-1.172-.01-.685-.462-1.175-1.148-1.175zm.736-.646l.286-5.845H6.974L7.27 9.48h1.471z"/></g></svg>

<?xml version="1.0"?><!DOCTYPE svg PUBLIC "-//W3C//DTD SVG 1.1//EN" "http://www.w3.org/Graphics/SVG/1.1/DTD/svg11.dtd"><svg width="16px" height="16px" xmlns="http://www.w3.org/2000/svg" viewBox="0 0 16 16" shape-rendering="geometricPrecision" fill="#6e6e6e"><defs><mask id="visibility-invisible-path"><rect fill="#fff" width="100%" height="100%"/><path d="M12.997,0.858c-1.845,0-3.446,1.039-4.253,2.563c0.808,1.523,2.408,2.562,4.253,2.562 c1.844,0,3.444-1.039,4.253-2.562C16.441,1.897,14.841,0.858,12.997,0.858z" fill="#000"/></mask></defs><g id="visibility-invisible" display="inline" fill="#cb1800"><g><g><path d="M12.997,1.611c-1.303,0-2.433,0.733-3.003,1.81c0.57,1.075,1.7,1.809,3.003,1.809c1.302,0,2.432-0.733,3.003-1.809 C15.429,2.345,14.299,1.611,12.997,1.611z M12.996,5.007c-0.876,0-1.587-0.71-1.587-1.586c0-0.877,0.711-1.588,1.587-1.588 c0.877,0,1.588,0.711,1.588,1.588C14.584,4.297,13.873,5.007,12.996,5.007z"/></g></g></g><g mask="url(#visibility-invisible-path)"><path d="M7.999,0.973c-3.864,0-6.996,3.133-6.996,7c0.001,3.862,3.132,6.992,6.996,6.994 c3.865-0.002,6.998-3.132,6.998-6.994C14.997,4.105,11.864,0.973,7.999,0.973z M7.999,13.552 c-3.082-0.006-5.575-2.499-5.581-5.579c0.006-3.085,2.499-5.579,5.581-5.585c3.082,0.006,5.576,2.5,5.582,5.585 C13.574,11.053,11.081,13.546,7.999,13.552z M8.005,10.126c-0.683,0-1.16,0.49-1.16,1.175c0,0.671,0.464,1.172,1.147,1.172h0.013 c0.698,0,1.148-0.501,1.148-1.172C9.143,10.616,8.691,10.126,8.005,10.126z M8.741,9.48l0.286-5.845H6.974L7.27,9.48H8.741z"/></g></svg>
